applets/24x24/firewall-applet-panic.svg

<?xml version="1.0" encoding="UTF-8"?>
<svg
   width="24"
   height="24"
   version="1.1"
   xmlns="http://www.w3.org/2000/svg">
  <defs>
    <style id="current-color-scheme" type="text/css">
      .ColorScheme-Text { color:#232629; }
      .line {
        fill:none;
        stroke:currentColor;
        stroke-width:1;
        stroke-linecap:round;
        stroke-linejoin:round;
      }
      .panic {
        fill:none;
        stroke:#ff0000;
        stroke-width:1;
        stroke-linecap:round;
        stroke-linejoin:round;
      }
    </style>
  </defs>
  <g transform="translate(1,1)">
  <g class="ColorScheme-Text line">
    <path
       d="m 1,16.5 4.518275,0.01496 a 0.99067986,0.99067986 0 0 0 0.9939416,-0.996671 l -0.00616,-1.018306 A 1.0060713,1.0060713 0 0 0 5.5,13.5 h -2 a 1,1 0 0 1 -1,-1 v -1 a 1,1 0 0 1 1,-1 h 2 m 4,1 a 1,1 0 0 1 1,-1 h 2 a 1.0183243,1.0183243 0 0 0 1.018156,-0.9998352 l 0.0185,-1.0185972 a 1.012027,1.012027 0 0 1 1.018137,-0.9936328 l 0.945228,0.00586 A 0.99381672,0.99381672 0 0 0 16.5,6.5 v -1 a 1,1 0 0 1 1,-1 h 2" />
    <path
       d="m 12.7,13.5 h -2.2 a 1,1 0 0 1 -1,-1 v -1 a 1,1 0 0 0 -1,-1 h -1 A 0.98200545,0.98200545 0 0 1 6.5181564,9.500165 L 6.5366534,8.481568 A 1.012027,1.012027 0 0 1 7.5547908,7.4879348 l 0.9452282,0.00586 A 0.99381672,0.99381672 0 0 0 9.5,6.5 v -1 a 1,1 0 0 0 -1,-1 h -5 a 1,1 0 0 0 -1,1" />
    <path
       d="m 14.5,13.5 a 1.0165315,1.0165315 134.07564 0 0 -1,1.032798 v 0.934404 a 1.035369,1.035369 134.92878 0 1 -1.032795,1.035365 l -4.9489408,0.0123 C 6.9655551,16.516746 6.5155653,16.07099 6.512217,15.518288 L 6.506053,14.499982 C 6.5027042,13.946731 6.0532613,13.5 5.5,13.5 h -2 c -0.5522847,0 -1,-0.447715 -1,-1 v -1 c 0,-0.552285 -0.4477153,-1 -1,-1 H 1 m 0.05481,-3.0182676 0.4452699,0.00563 C 2.0502649,7.4943169 2.5000009,7.050229 2.5,6.5 v -1 c 0,-0.5522847 -0.4477153,-1 -1,-1 H 1" />
    <path
       d="M 15.2,10.5 H 14.5 A 0.98200545,0.98200545 0 0 1 13.518156,9.5001648 l 0.0185,-1.0185972 a 1.012027,1.012027 0 0 1 1.018137,-0.9936328 l 0.945228,0.00586 A 0.99381672,0.99381672 0 0 0 16.5,6.5 v -1 a 1,1 0 0 0 -1,-1 h -5 a 1,1 0 0 0 -1,1" />
    <path d="m 7.5,13.5 h 1" />
    <path d="m 17.5,7.5 h 2" />
    <path d="M 10.5,7.5 12.601122,7.487935" />
    <path
       d="M 3.5,7.5 H 5.5184324 A 0.98156756,0.98156756 0 0 1 6.5,8.481568 v 0.68891" />
    <path d="M 1,13.5 H 1.5" />
  </g>
  <g class="ColorScheme-Text" transform="translate(0,-1.99995)">
    <path
       d="M 17.998,13.5 C 16.9001,13.5 16,14.40012 16,15.498 v 0.50195 H 15.85742 C 15.39011,15.99995 15,16.39006 15,16.85737 v 2.9453 c 0,0.65562 0.54164,1.1973 1.1973,1.1973 h 2.9863 c 0.99714,0 1.8164,-0.81926 1.8164,-1.8164 v -2.3262 c 0,-0.46731 -0.39011,-0.85742 -0.85742,-0.85742 H 20 V 15.498 C 20,14.4001 19.09988,13.5 18.002,13.5 Z m 0,1 h 0.0039 c 0.55753,0 0.99805,0.44055 0.99805,0.99805 V 16 h -2 V 15.49805 C 16.99995,14.94056 17.4405,14.5 17.998,14.5 Z M 16,17 h 4 v 2.1836 c 0,0.4567 -0.3597,0.81641 -0.81641,0.81641 h -2.9863 c -0.11518,0 -0.19727,-0.08208 -0.19727,-0.19727 z"
       fill="currentColor" />
  </g>
  <g class="panic" opacity="0.2" transform="translate(-0.1)">
    <path
       d="m 2.5,19 4.518275,0.01496 a 0.99067986,0.99067986 134.92144 0 0 0.9939416,-0.996671 l -0.00616,-1.018306 A 1.0060713,1.0060713 44.826597 0 0 7,16 H 5 A 1,1 45 0 1 4,15 v -1 a 1,1 135 0 1 1,-1 h 2 m 4,1 a 1,1 135 0 1 1,-1 h 2 a 1.0183243,1.0183243 135.52017 0 0 1.018156,-0.999835 l 0.0185,-1.018597 a 1.012027,1.012027 135.69786 0 1 1.018137,-0.9936332 l 0.945228,0.00586 A 0.99381672,0.99381672 135.17769 0 0 18,9 V 8 a 1,1 135 0 1 1,-1 h 2"
       transform="translate(-1.4,-2.5)" />
    <path
       d="M 14.2,16 H 12 A 1,1 45 0 1 11,15 V 14 A 1,1 45 0 0 10,13 H 9 A 0.98200545,0.98200545 45.520172 0 1 8.0181564,12.000165 l 0.018497,-1.018597 A 1.012027,1.012027 135.69786 0 1 9.0547908,9.9879348 l 0.9452282,0.00586 A 0.99381672,0.99381672 135.17769 0 0 11,9 V 8 A 1,1 45 0 0 10,7 H 5 A 1,1 135 0 0 4,8"
       transform="translate(-1.4,-2.5)" />
    <path
       d="m 16,16 a 1.0165313,1.0165313 134.07565 0 0 -1,1.032798 v 0.934404 a 1.0353686,1.0353686 134.92878 0 1 -1.032795,1.035365 l -4.9489408,0.0123 C 8.4655551,19.016746 8.0155653,18.57099 8.012217,18.018288 L 8.006053,16.999982 C 8.0027042,16.446731 7.5532613,16 7,16 H 5 C 4.4477153,16 4,15.552285 4,15 V 14 C 4,13.447715 3.5522847,13 3,13 H 2.5 m 0.05481,-3.0182676 0.4452699,0.00563 C 3.5502649,9.9943169 4.0000009,9.550229 4,9 V 8 C 4,7.4477153 3.5522847,7 3,7 H 2.5"
       transform="translate(-1.4,-2.5)" />
    <path
       d="M 16.7,13 H 16 a 0.98200545,0.98200545 45.520172 0 1 -0.981844,-0.999835 l 0.0185,-1.018597 a 1.012027,1.012027 135.69786 0 1 1.018137,-0.9936332 l 0.945228,0.00586 A 0.99381672,0.99381672 135.17769 0 0 18,9 V 8 A 1,1 45 0 0 17,7 h -5 a 1,1 135 0 0 -1,1"
       transform="translate(-1.4,-2.5)" />
    <path d="m 7.6,13.5 h 1" />
    <path d="m 17.6,7.5 h 2" />
    <path d="M 10.6,7.5 12.701122,7.487935" />
    <path
       d="M 5,10 H 7.0184324 A 0.98156756,0.98156756 45 0 1 8,10.981568 v 0.68891"
       transform="translate(-1.4,-2.5)" />
    <path d="M 1.1,13.5 H 1.6" />
  </g>
  </g>
</svg>

<?xml version="1.0" encoding="UTF-8"?>
<svg width="24" height="24" version="1.1" xmlns="http://www.w3.org/2000/svg">
 <defs>
  <style id="current-color-scheme" type="text/css">.ColorScheme-Text { color:#232629; }
      .line {
        fill:none;
        stroke:currentColor;
        stroke-width:1;
        stroke-linecap:round;
        stroke-linejoin:round;
      }
      .panic {
        fill:none;
        stroke:#ff0000;
        stroke-width:1;
        stroke-linecap:round;
        stroke-linejoin:round;
      }</style>
 </defs>
 <g transform="translate(1,1)">
 <g class="ColorScheme-Text line">
  <path d="m1 16.5 4.5183 0.01496a0.99068 0.99068 0 0 0 0.99394-0.99667l-0.00616-1.0183a1.0061 1.0061 0 0 0-1.0061-0.99998h-2a1 1 0 0 1-1-1v-1a1 1 0 0 1 1-1h2m4 1a1 1 0 0 1 1-1h2a1.0183 1.0183 0 0 0 1.0182-0.99984l0.0185-1.0186a1.012 1.012 0 0 1 1.0181-0.99363l0.94523 0.00586a0.99382 0.99382 0 0 0 0.99998-0.99379v-1a1 1 0 0 1 1-1h2"/>
  <path d="m12.7 13.5h-2.2a1 1 0 0 1-1-1v-1a1 1 0 0 0-1-1h-1a0.98201 0.98201 0 0 1-0.98184-0.99984l0.018497-1.0186a1.012 1.012 0 0 1 1.0181-0.99363l0.94523 0.00586a0.99382 0.99382 0 0 0 0.99998-0.99379v-1a1 1 0 0 0-1-1h-5a1 1 0 0 0-1 1"/>
  <path d="m14.5 13.5a1.0165 1.0165 134.08 0 0-1 1.0328v0.9344a1.0354 1.0354 134.93 0 1-1.0328 1.0354l-4.9489 0.0123c-0.55271 0.001879-1.0027-0.44388-1.006-0.99658l-0.006164-1.0183c-0.0033488-0.55325-0.45279-0.99998-1.0061-0.99998h-2c-0.55228 0-1-0.44772-1-1v-1c0-0.55228-0.44772-1-1-1h-0.5m0.05481-3.0183 0.44527 0.00563c0.55018 0.0069545 0.99992-0.43713 0.99992-0.98736v-1c0-0.55228-0.44772-1-1-1h-0.5"/>
  <path d="m15.2 10.5h-0.7a0.98201 0.98201 0 0 1-0.98184-0.99984l0.0185-1.0186a1.012 1.012 0 0 1 1.0181-0.99363l0.94523 0.00586a0.99382 0.99382 0 0 0 0.99998-0.99379v-1a1 1 0 0 0-1-1h-5a1 1 0 0 0-1 1"/>
  <path d="m7.5 13.5h1"/>
  <path d="m17.5 7.5h2"/>
  <path d="m10.5 7.5 2.1011-0.012065"/>
  <path d="m3.5 7.5h2.0184a0.98157 0.98157 0 0 1 0.98157 0.98157v0.68891"/>
  <path d="m1 13.5h0.5"/>
 </g>
 <g class="ColorScheme-Text" transform="translate(0 -2)">
  <path d="m17.998 13.5c-1.0979 0-1.998 0.90012-1.998 1.998v0.50195h-0.14258c-0.46731 0-0.85742 0.39011-0.85742 0.85742v2.9453c0 0.65562 0.54164 1.1973 1.1973 1.1973h2.9863c0.99714 0 1.8164-0.81926 1.8164-1.8164v-2.3262c0-0.46731-0.39011-0.85742-0.85742-0.85742h-0.14258v-0.50195c0-1.0979-0.90012-1.998-1.998-1.998zm0 1h0.0039c0.55753 0 0.99805 0.44055 0.99805 0.99805v0.50195h-2v-0.50195c0-0.55749 0.44055-0.99805 0.99805-0.99805zm-1.998 2.5h4v2.1836c0 0.4567-0.3597 0.81641-0.81641 0.81641h-2.9863c-0.11518 0-0.19727-0.08208-0.19727-0.19727z" fill="currentColor"/>
 </g>
 <g class="panic" transform="translate(-.1)" opacity=".2">
  <path transform="translate(-1.4,-2.5)" d="m2.5 19 4.5183 0.01496a0.99068 0.99068 134.92 0 0 0.99394-0.99667l-0.00616-1.0183a1.0061 1.0061 44.827 0 0-1.0061-0.99998h-2a1 1 45 0 1-1-1v-1a1 1 135 0 1 1-1h2m4 1a1 1 135 0 1 1-1h2a1.0183 1.0183 135.52 0 0 1.0182-0.99984l0.0185-1.0186a1.012 1.012 135.7 0 1 1.0181-0.99363l0.94523 0.00586a0.99382 0.99382 135.18 0 0 0.99998-0.99379v-1a1 1 135 0 1 1-1h2"/>
  <path transform="translate(-1.4,-2.5)" d="m14.2 16h-2.2a1 1 45 0 1-1-1v-1a1 1 45 0 0-1-1h-1a0.98201 0.98201 45.52 0 1-0.98184-0.99984l0.018497-1.0186a1.012 1.012 135.7 0 1 1.0181-0.99363l0.94523 0.00586a0.99382 0.99382 135.18 0 0 0.99998-0.99379v-1a1 1 45 0 0-1-1h-5a1 1 135 0 0-1 1"/>
  <path transform="translate(-1.4,-2.5)" d="m16 16a1.0165 1.0165 134.08 0 0-1 1.0328v0.9344a1.0354 1.0354 134.93 0 1-1.0328 1.0354l-4.9489 0.0123c-0.55271 0.001879-1.0027-0.44388-1.006-0.99658l-0.006164-1.0183c-0.0033488-0.55325-0.45279-0.99998-1.0061-0.99998h-2c-0.55228 0-1-0.44772-1-1v-1c0-0.55228-0.44772-1-1-1h-0.5m0.05481-3.0183 0.44527 0.00563c0.55018 0.0069545 0.99992-0.43713 0.99992-0.98736v-1c0-0.55228-0.44772-1-1-1h-0.5"/>
  <path transform="translate(-1.4,-2.5)" d="m16.7 13h-0.7a0.98201 0.98201 45.52 0 1-0.98184-0.99984l0.0185-1.0186a1.012 1.012 135.7 0 1 1.0181-0.99363l0.94523 0.00586a0.99382 0.99382 135.18 0 0 0.99998-0.99379v-1a1 1 45 0 0-1-1h-5a1 1 135 0 0-1 1"/>
  <path d="m7.6 13.5h1"/>
  <path d="m17.6 7.5h2"/>
  <path d="m10.6 7.5 2.1011-0.012065"/>
  <path transform="translate(-1.4,-2.5)" d="m5 10h2.0184a0.98157 0.98157 45 0 1 0.98157 0.98157v0.68891"/>
  <path d="m1.1 13.5h0.5"/>
 </g>
 </g>
</svg>
